X:624
T:
S:Från Gotlands fornsal.
R:kadrilj
O:Gotland
M:2/4
L:1/16
K:C
c2|G2c2 E2c2|cBB2 Bcde|fefa gfed|cBcd B2A2|
G2c2 E2c2|cBB2 Bcde|fefa gfed|d4 c2:|
|:ef|g2g2 agec|cBB2 Bcde|fefa gfed|cBcd cdef|
g2g2 agec|cBB2 Bcde|fefa gfed|d4 c2:|
K:F
|:c2|g2ag f2af|c2c2c2 de|f2ga bagf|gfga g2c2|
f2ag f2af|c2c2c2 de|f2f2 gfga|g4 f2:|
c2|b3g agfg|a2f2f2c2|f2c2g2c2|bagf g2c2|
b2g2 agfg|a2f2f2a2|gfed c2de|f2a2f2:|

